svgs/sharp-solid/shirt-running.svg

<svg xmlns="http://www.w3.org/2000/svg" viewBox="0 0 384 512"><!--! Font Awesome Pro 6.6.0 by @fontawesome - https://fontawesome.com License - https://fontawesome.com/license (Commercial License) Copyright 2024 Fonticons, Inc. --><path d="M112 0l0 32 0 48c0 44.2 35.8 80 80 80s80-35.8 80-80l0-48 0-32 64 0 0 32 0 32 0 16 0 48 7.6 20.4L0 393.8 0 256 48 128l0-48 0-16 0-32L48 0l64 0zM0 472.5L366.9 210.4 384 256l0 256L0 512l0-39.5z"/></svg>

<svg xmlns="http://www.w3.org/2000/svg" viewBox="0 0 384 512"><!--! Font Awesome Pro 6.4.2 by @fontawesome - https://fontawesome.com License - https://fontawesome.com/license (Commercial License) Copyright 2023 Fonticons, Inc. --><path d="M112 0V32 80c0 44.2 35.8 80 80 80s80-35.8 80-80V32 0h64V32 64 80v48l7.6 20.4L0 393.8V256L48 128V80 64 32 0h64zM0 472.5L366.9 210.4 384 256V512H0V472.5z"/></svg>
